X: 1450
T: Frank Forde's 1st Varsovienna
B: australian traditional tunes wiki
M:3/4
L:1/8
R: Varsovienne
Q: 1/4=100
K:G
V:1 
e>f||"G"g2B>A ((3Bcd)|"C"e4((3efg)|"D7"f2d>e f>e|"G"d4((3DEF)|G2A>G A>B|"C"c4((3EFG)|"D7"A>cd2((3DEF)|"G"G4e>f|
"G"g2B>A ((3Bcd)|"C"e4((3efg)|"D7"f2d>e f>e|"G"d4((3DEF)|"G"G2A>G A>B|"C"c4((3EFG)|"D7"A>cd2((3DEF)|"G"G4 (3ABc||
"G"d>B d>B d>B|"D7"A>B c>B A>B|"C"c>B c>d ((3efe)|"G"d4G>A|B>c B>c A>B|"C"c>B c>A B>c|"D7"d>B ((3cdc) A2|"G"G4B>c|
"G"d>B d>B d>B|"D7"A>B c>B A>B|"C"c>B c>d ((3efe)|"G"d4G>A|"G"B>c B>c A>B|"C"c>B c>A B>c|"D7"d>B ((3cdc) A2|"G"G6||
% abcbook-tune_id 6342d53a96b89a2f8016cc85


% abcbook-boost 0
% abcbook-tablature 
% abcbook-transpose 
% abcbook-lastupdated 1665324365636
% abcbook-soundfonts 
% abcbook-repeats 1
% NFF Book 2013

